X: 20094
T: The LASS WITH THE YELLOW COATEE
C:
%R: reel
B: Elias Howe "The Musician's Companion" 1843 p.9 #4
S: http://imslp.org/wiki/The_Musician's_Companion_(Howe,_Elias)
Z: 2015 John Chambers <jc:trillian.mit.edu>
M: C
L: 1/8
K: G
% - - - - - - - - - - - - - - - - - - - - - - - - -
|:\
G/G/GGB degd | edgd edeg |\
G/G/GGB dege | egdB AGE2 ::\
gabg aegd | Bdde fge2 |\
gabg aegd | egdB AGE2 :|
% - - - - - - - - - - - - - - - - - - - - - - - - -

%%sep 1 1 500

